!!! OTL: Berkowitz291
!!! Chapter: 1
!!! Section: III
!!! Page: 69
!!! Mode: 
!!! Encoder: DJB
**kern
*staff1
*I"Piano
=1-
*clefF4
*k[f#c#g#d#]
*E:
*met(c|)
*M2/2
4BB/
4E\
4G#\
[4B\
=2
4B\]
4E\
4D#\
[4B\
=3
4B\]
4D#\
4C#/
4A\
=4
6G#\
6F#\
6E\
4F#\
4BB/
=5
4C#/
4D#\
4A\
[4c#\
=6
4c#\]
4A\
4F#\
[4B\
=7
4B\]
4A\
6G#\
6F#\
6E\
=8
4F#\
4BB/
4B\
8r
8BB/
=9
!!linebreak:original
6c#\
6A\
6G#\
4F#\
4E\
=10
4F#\
4BB/
2E\
==
*-
